X:1
T:Benedictus qui venit
T:Philippe Rogier (c1561-1596) edit BMarble
T:Benedictus qui venit
T:Copyright © 2015 by CPDL.  This edition can be fully distributed, duplicated, performed, and recorded. 
T:Copyright © 2015 by CPDL.  This edition can be fully distributed, duplicated, performed, and recorded. 
T:Copyright © 2015 by CPDL.  This edition can be fully distributed, duplicated, performed, and recorded. 
C:Philippe Rogier (c1561-1596)
C:edit BMarble
Z:Copyright © 2015 by CPDL.  This edition can be fully distributed, duplicated, performed, and recorded.
Z:
%%score [ 1 2 3 ]
L:1/8
Q:1/2=92
M:4/2
K:Bb
V:1 treble nm="Soprano" snm="S."
V:2 treble nm="Alto" snm="A."
V:3 treble-8 transpose=-12 nm="Tenor" snm="T."
V:1
"^saa/sat" F8 F4 F4 | G4 A4 B8 | F8 z4 F4 | G2 A2 B2 c2 d2 e2 f2 d2 | e4 e4 d8 | c6 d2 e4 d4- | %6
w: Be- ne- dic-|tus qui ve-|nit in|no- * * * * * * *|* mi- ne|Do- * * *|
 d4 c2 B2 c6 c2 | B4 A2 G2 F8 | z4 c4 (B6 AG | F4) A4 G4 B4- | B2 A2 A2 GF G8- | G8 B8 | %12
w: * * * * mi-|ni, _ _ _|in no- * *|* mi- ne Do-|* * * mi- * ni,|_ Do-|
 (A6 GF G8) | A6 F2 G2 A2 B2 c2 | d2 e2 f2 d2 e6 e2 | d6 cB A2 B2 c2 A2 | B4 d6 c2 c2 BA | %17
w: mi- * * *|ni, in no- * * *|* * * * * mi-|ne _ _ _ _ _ _|_ Do- * * * *|
 B6 B2 A4 c4 | (B6 AG F4) A4 | G4 G2 A2 B2 c2 d4- | d2 c2 c8 =B4 | c4 c4 (_B6 AG | F4) _A4 G8- || %23
w: * mi- ni, in|no- * * * mi-|ne Do- * * * *|* * * mi-|ni, in no- * *|* mi- ne|
[M:3/1] G4 B6 _A2 A2 GF G8 | =A16 |] %25
w: _ Do- * * * * mi-|ni.|
V:2
 z16 | z8 B,8 | B,4 B,4 C4 D4 | E8 B,4 B,4 | C2 D2 E2 F2 G2 A2 B2 G2 | _A4 A4 G4 B4- | %6
w: |Be-|ne- dic- tus qui|ve- nit in|no- * * * * * * *|* mi- ne Do-|
 B4 =A2 G2 A2 G2 F2 E2 | D4 C4 D2 C2 D2 E2 | F6 E2 D8 | z16 | z8 C8 | C4 C4 D4 E4 | F8 C8 | %13
w: |* mi- ni, _ _ _|_ _ _||be-|ne- dic- tus qui|ve- nit|
 z4 F4 (_E6 DC | B,4) D4 C4 G4- | G4 (F6 ED C4) | E4 D4 F8- | F4 =E4 F4 F,4 | %18
w: in no- * *|* mi- ne, in|_ no- * * *|mi- ne Do-|* mi- ni, in|
 G,2 A,2 B,2 C2 D2 E2 F2 D2 | _E6 E2 F4 F4- | F2 E2 E2 DC D6 D2 | C8 z8 | z8 z4 C2 D2 || %23
w: no- * * * * * * *|* mi- ne Do-|* * * * * * mi-|ni,|Do- *|
[M:3/1] E2 F2 G6 F2 F8 =E4 | F16 |] %25
w: * * * * * mi-|ni.|
V:3
 z16 | z16 | z16 | z16 | z16 | z16 | F8 F4 F4 | G4 A4 B8 | F4 F4 G2 A2 B2 c2 | d2 e2 f2 d2 e6 e2 | %10
w: ||||||Be- ne- dic-|tus qui ve-|nit in no- * * *|* * * * * mi-|
 d4 f8 e2 d2 | e2 f2 g2 e2 f4 g4 | f4 f8 =e4 | f8 z8 | z8 z4 c4 | (B6 AG F4) A4 | G4 B6 A2 A2 GF | %17
w: ne Do- * *|* * * * * mi-|ni, Do- mi-|ni,|in|no- * * * mi-|ne Do- * * * *|
 G6 G2 F8 | z16 | z4 c4 (B6 AG | F4) _A4 G8 | z4 c2 d2 e2 f2 g4- | g2 f2 f8 e2 d2 || %23
w: * mi- ni,||in no- * *|* mi- ne|Do- * * * *|* * * mi- *|
[M:3/1] c4 (B4 _d8) c8 | F16 |] %25
w: ni, Do- * mi-|ni.|

